icons/Location_2.svg

<svg width="24" height="24" viewBox="0 0 24 24" fill="none" xmlns="http://www.w3.org/2000/svg">
<path fill-rule="evenodd" clip-rule="evenodd" d="M12,1.25c0.4142,0 0.75,0.33579 0.75,0.75v2.28582c3.6815,0.35353 6.6106,3.28268 6.9642,6.96418h0.2858h2c0.4142,0 0.75,0.3358 0.75,0.75c0,0.4142 -0.3358,0.75 -0.75,0.75h-2h-0.2858c-0.3536,3.6815 -3.2827,6.6107 -6.9642,6.9642v2.2858c0,0.4142 -0.3358,0.75 -0.75,0.75c-0.4142,0 -0.75,-0.3358 -0.75,-0.75v-2.2858c-3.6815,-0.3535 -6.61065,-3.2827 -6.96418,-6.9642h-2.28582c-0.41421,0 -0.75,-0.3358 -0.75,-0.75c0,-0.4142 0.33579,-0.75 0.75,-0.75h2.28582c0.35353,-3.6815 3.28268,-6.61065 6.96418,-6.96418v-2.28582c0,-0.41421 0.3358,-0.75 0.75,-0.75zM18.25,12c0,-3.45178 -2.7982,-6.25 -6.25,-6.25c-3.45178,0 -6.25,2.79822 -6.25,6.25c0,3.4518 2.79822,6.25 6.25,6.25c3.4518,0 6.25,-2.7982 6.25,-6.25zM12,14.25c1.2426,0 2.25,-1.0074 2.25,-2.25c0,-1.2426 -1.0074,-2.25 -2.25,-2.25c-1.2426,0 -2.25,1.0074 -2.25,2.25c0,1.2426 1.0074,2.25 2.25,2.25zM15.75,12c0,2.0711 -1.6789,3.75 -3.75,3.75c-2.07107,0 -3.75,-1.6789 -3.75,-3.75c0,-2.07107 1.67893,-3.75 3.75,-3.75c2.0711,0 3.75,1.67893 3.75,3.75z" fill="#002B51"/>
</svg>

<svg width="24" height="24" viewBox="0 0 24 24" fill="none" xmlns="http://www.w3.org/2000/svg">
<path fill-rule="evenodd" clip-rule="evenodd" d="M12 1.25C12.4142 1.25 12.75 1.58579 12.75 2V4.28582C16.4315 4.63935 19.3606 7.5685 19.7142 11.25H20H22C22.4142 11.25 22.75 11.5858 22.75 12C22.75 12.4142 22.4142 12.75 22 12.75H20H19.7142C19.3606 16.4315 16.4315 19.3607 12.75 19.7142V22C12.75 22.4142 12.4142 22.75 12 22.75C11.5858 22.75 11.25 22.4142 11.25 22V19.7142C7.5685 19.3607 4.63935 16.4315 4.28582 12.75H2C1.58579 12.75 1.25 12.4142 1.25 12C1.25 11.5858 1.58579 11.25 2 11.25H4.28582C4.63935 7.5685 7.5685 4.63935 11.25 4.28582V2C11.25 1.58579 11.5858 1.25 12 1.25ZM12 18.25C8.54822 18.25 5.75 15.4518 5.75 12C5.75 8.54822 8.54822 5.75 12 5.75C15.4518 5.75 18.25 8.54822 18.25 12C18.25 15.4518 15.4518 18.25 12 18.25ZM9.75 12C9.75 10.7574 10.7574 9.75 12 9.75C13.2426 9.75 14.25 10.7574 14.25 12C14.25 13.2426 13.2426 14.25 12 14.25C10.7574 14.25 9.75 13.2426 9.75 12ZM12 8.25C9.92893 8.25 8.25 9.92893 8.25 12C8.25 14.0711 9.92893 15.75 12 15.75C14.0711 15.75 15.75 14.0711 15.75 12C15.75 9.92893 14.0711 8.25 12 8.25Z" fill="#002B51"/>
</svg>
